X:237
T: Das Regina coeli deutsch, auf die osterliche Zeit zu singen
N: A0595B
O: Europa, Mitteleuropa, Deutschland
N: Strassb. Gsgb 1569
R: Romanze, Ballade, Lied, religioeses Lied
M: 4/2
L: 1/4
K: G
G | G2d2B2G2 | ABc2B4 |
d2e2dcBA | G2z2
c2A2 | B2G2A2G
B | A2GFEFGF | E2D2
d2BG | c2BGA2G2

